build/svg/chart2/res/typebar_16.svg

<svg viewBox="0 0 16 16" xmlns="http://www.w3.org/2000/svg"><path d="m3 2v10h-1v1h1v1h1v-1h10v-1h-10v-1h10v-3h-10v-2h6v-3h-6v-1z" fill="#232629"/></svg>

<svg viewBox="0 0 16 16" xmlns="http://www.w3.org/2000/svg"><path d="M3 2v10H2v1h1v1h1v-1h10v-1H4v-1h10V8H4V6h6V3H4V2z" fill="#232629"/></svg>
